app/assets/images/heroicons/solid/arrow-up-tray.svg

<svg width="24" height="24" viewBox="0 0 24 24" fill="none" xmlns="http://www.w3.org/2000/svg">
<path fill-rule="evenodd" clip-rule="evenodd" d="M11.4697 2.46967C11.7626 2.17678 12.2374 2.17678 12.5303 2.46967L17.0303 6.96967C17.3232 7.26256 17.3232 7.73744 17.0303 8.03033C16.7374 8.32322 16.2626 8.32322 15.9697 8.03033L12.75 4.81066L12.75 16.5C12.75 16.9142 12.4142 17.25 12 17.25C11.5858 17.25 11.25 16.9142 11.25 16.5L11.25 4.81066L8.03033 8.03033C7.73744 8.32322 7.26256 8.32322 6.96967 8.03033C6.67678 7.73744 6.67678 7.26256 6.96967 6.96967L11.4697 2.46967ZM3 15.75C3.41421 15.75 3.75 16.0858 3.75 16.5V18.75C3.75 19.5784 4.42157 20.25 5.25 20.25H18.75C19.5784 20.25 20.25 19.5784 20.25 18.75V16.5C20.25 16.0858 20.5858 15.75 21 15.75C21.4142 15.75 21.75 16.0858 21.75 16.5V18.75C21.75 20.4069 20.4069 21.75 18.75 21.75H5.25C3.59315 21.75 2.25 20.4069 2.25 18.75V16.5C2.25 16.0858 2.58579 15.75 3 15.75Z" fill="#0F172A"/>
</svg>

<svg xmlns="http://www.w3.org/2000/svg" viewBox="0 0 24 24" fill="currentColor" aria-hidden="true" data-slot="icon">
  <path fill-rule="evenodd" d="M11.47 2.47a.75.75 0 0 1 1.06 0l4.5 4.5a.75.75 0 0 1-1.06 1.06l-3.22-3.22V16.5a.75.75 0 0 1-1.5 0V4.81L8.03 8.03a.75.75 0 0 1-1.06-1.06l4.5-4.5ZM3 15.75a.75.75 0 0 1 .75.75v2.25a1.5 1.5 0 0 0 1.5 1.5h13.5a1.5 1.5 0 0 0 1.5-1.5V16.5a.75.75 0 0 1 1.5 0v2.25a3 3 0 0 1-3 3H5.25a3 3 0 0 1-3-3V16.5a.75.75 0 0 1 .75-.75Z" clip-rule="evenodd"/>
</svg>
